X: 35779
T: Sally In The Garden
R: barndance
M: 4/4
K: Gminor
|:GAGF DFGA|B2 B2 A4|GAGF D2 DE|F2 AF BFAF|
GAGF DFGA|BG cG d4|d2 de dc A2|BABc BA F2|G8:|
|:GA B2 GA B2|GA BG cG D2|GA B2 GA B2|Bcdc AB G2|
GA B2 GA B2|GA BG cG d2|d2 dedc A2|BABc BA F2|G8:|

